X:21
T:Soldiers Joy,The. JBs. 021
S:Jas.Blackshaw MS, 1837, N.Shropshire
Z:T.Weatherall 2006
M:4/4
L:1/8
Q:1/2=90
A:North Shropshire
R:.Hornpipe
K:G
Bc|dBGB dBGB|d2g2g2fe|dBGB dBGB|c2A2A2Bc|!
dBGB dBGB|d2g2g2bcâ€™|dâ€™aga câ€™afa|g2g2g2:|!
|:a2|babcâ€™ bdâ€™câ€™b|agfg abdâ€™b|babcâ€™ bdâ€™câ€™b|agfe d2d2|!
babeâ€™ bdâ€™câ€™b|agfg abcâ€™a|câ€™bgb câ€™afa|g2g2g2:|

